X: 39941
T: Thompson's
R: jig
M: 6/8
K: Gmajor
G3 BAB|GBg edB|e2 g edB|AGA B2 A|
GED GBd|gba ged|e/f/ge dBd|egf ged:|
|:gba ged|egg dBd|gba ged|eaa a3|
gba ged|e/f/ge dBA|B3 dBA|1 GBA GBd:|2 GBA G3||

